X:1
T:Watching for the Morning
T:Watching for the Morning
T:Charles Hutchinson Gabriel
T:Thomas Watson, 1897
T:Public Domain Courtesy of the Cyber Hymnal™
T:Public Domain Courtesy of the Cyber Hymnal™
C:Charles Hutchinson Gabriel
Z:Public Domain
Z:Courtesy of the Cyber Hymnal™
%%score ( 1 2 ) ( 3 4 )
L:1/8
Q:1/4=92
M:4/4
K:Bb
V:1 treble 
V:2 treble 
V:3 bass 
V:4 bass 
V:1
 [DF]2 | [DF]>[^C=E] [DF]>[_EG] [DF]2 [B,D]>[DF] | [FB]2 [Fc]2 [Fd]2 [Fd]>[Fc] | %3
w: 1.~The|dark- ness fades a- way, and the|morn draws nigh, When the|
w: 2.~My|eyes may close in sleep ere the|break of day, But the|
w: 3.~The|morn will soon be here with its|joy and light, And the|
 [GB]>[GB] [GB]>[GB] [Ac]>[GB] [FA]>[EG] | [DF]6 [B,D]>[DF] | [CE]>[CE] [=B,D]>[CE] [Ec]2 (FE) | %6
w: sha- dows of the night will fall no|more; And an|end- less day will cheer each *|
w: Lord will wake me when He comes a-|gain; When He|comes to call me home to *|
w: glo- ry of the day will shine a-|far; Then our|watch- ing eyes will glad- den *|
 [B,D]2 [DF]2 [DB]2 [Fd]>[Fd] | [Fc]>[Fc] [FA]>[Fc] (c>B) (A>G) | F6 ||"^Refrain" F>F | %10
w: wist- ful eye, And the|wea- ry watch of life * is *|o’er.||
w: Him for aye, In His|glo- ry ev- er- more * to *|reign.|I am|
w: at the sight When we|rise and hail the Morn- * ing *|Star.||
 [Fd]>[Fd] [Fd]>[Fd] [Fe]>[Ec] [DB]>[Fd] | [Ec]>[EB] [EA]>[EG] [DF]2 [B,D]>[DF] | %12
w: ||
w: watch- ing for the morn- ing When the|end- less morn will break, When the|
w: ||
 [DB]>[DB] [FB]>[Fc] [Fd]>[Fd] [Ff]>[Fd] | c6 F>F | [Fd]>[Fd] [Fd]>[Fd] [Fd]>[Ec] [DB]>[Fd] | %15
w: |||
w: bright- ness of His glo- ry we shall|see, When we’ll|see the Lord re- turn- ing, All His|
w: |||
 [Ec]>[EB] [EA]>[EG] [DF]2 [B,D]>[DF] | [FB]>[FB] [GB]>[Ge] [Fd]>[Fd] [Ec]>[Ec] | [DB]6 |] %18
w: |||
w: ran- somed home to take, May He|find a- mong the faith- ful you and|me.|
w: |||
V:2
 x2 | x8 | x8 | x8 | x8 | x6 C2 | x8 | x4 =E2 E2 | F6 || F>F | x8 | x8 | x8 | (F2 F>F F2) F>F | %14
 x8 | x8 | x8 | x6 |] %18
V:3
 [B,,B,]2 | [B,,B,]>[B,,B,] [B,,B,]>[B,,B,] [B,,B,]2 [B,,F,]>[B,,B,] | %2
w: ~|~ ~ ~ ~ ~ ~ ~|
 [D,B,]2 [F,A,]2 B,2 B,>[D,B,] | [E,B,]>[E,B,] [E,B,]>[E,B,] [E,B,]>[E,B,] [E,B,]>[E,B,] | %4
w: ~ ~ ~ ~ ~|~ ~ ~ ~ ~ ~ ~ ~|
 [B,,B,]6 [B,,F,]>[B,,B,] | [F,A,]>[F,A,] [F,A,]>[F,A,] [F,A,]2 [F,A,]2 | %6
w: ~ ~ ~|~ ~ ~ ~ ~ ~|
 [B,,B,]2 [B,,B,]2 [B,,B,]2 [B,,B,]>[B,,B,] | [C,A,]>[C,A,] [C,C]>[C,A,] [C,G,]2 (C>B,) | %8
w: ~ ~ ~ ~ ~|~ ~ ~ ~ ~ ~ *|
 [F,A,]6 || [F,A,]>[F,A,] | [B,,B,]>[B,,B,] [B,,B,]>[B,,B,] [B,,B,]>[B,,B,] [B,,F,]>[B,,B,] | %11
w: ~|~ ~|~ ~ ~ ~ ~ ~ ~ ~|
 [E,G,]>[E,G,] [E,G,]>[E,B,] [B,,B,]2 [B,,F,]>[B,,B,] | %12
w: ~ ~ ~ ~ ~ ~ ~|
 [B,,F,]>[B,,F,] [D,B,]>[F,A,] B,>B, [B,D]>B, | %13
w: ~ ~ ~ ~ ~ ~ ~ ~|
 [F,A,]2 [F,A,]>[F,A,] ([F,A,]>[E,C]) [D,B,]>[C,A,] | %14
w: ~ we shall see, * * *|
 [B,,B,]>[B,,B,] [B,,B,]>[B,,B,] [B,,B,]>[B,,B,] [B,,B,]>[B,,B,] | %15
w: |
 [E,G,]>[E,G,] [E,A,]>[E,B,] [B,,B,]2 [B,,F,]>[B,,B,] | %16
w: |
 [D,B,]>[D,B,] [E,B,]>[E,B,] [F,B,]>[F,B,] [F,A,]>[F,A,] | [B,,B,]6 |] %18
w: ||
V:4
 x2 | x8 | x4 B,2 B,3/2 x/ | x8 | x8 | x8 | x8 | x6 C,2 | x6 || x2 | x8 | x8 | x4 B,>B, x B,/ x/ | %13
 x8 | x8 | x8 | x8 | x6 |] %18

